!!!OTL: Missheirath
!!!ARE: Europa, Mitteleuropa, Deutschland
!!!SCT: A0250
!!!YEM: Copyright 1995, estate of Helmut Schaffrath.
**kern
*ICvox
*Ivox
*M4/2
*k[b-e-]
*g:
{2g
2g
2g
=1
4g
4a
4b-
4cc
1dd
=2
2r
2dd
2dd
2dd
=3
2.cc
4b-
2a}
{2a
=4
2.b-
4a
2g
2g
=5
1a
1g
=6
2r}
{2g
2g
2g
=7
4g
4a
4b-
4cc
1dd
=8
2r
2dd
2dd
2dd
=9
2.cc
4b-
2a}
{2a
=10
2.b-
4a
2g
2g
=11
1a
1g
=12
2r}
{2g
2a
2b-
=13
2.cc
4b-
2a
2g
=14
1fn
2r}
{2ffn
=15
2ee
2dd
2cc
2dd
=16
1ee
1dd
=17
2r}
{2dd
2dd
2dd
=18
2ffn
2ee
2dd
2dd
=19
2.cc
4b-
2a}
{2dd
=20
2cc
2b-
2a
2g
=21
1a
1g
=22
2r}
==
!!!AGN: Romanze, Ballade, Lied
!! Ott III. 1544 No. 16 und 110.
!!!ONB: ESAC (Essen Associative Code) Database: ALTDEU
!!!AMT: simple quadruple
!!!AIN: vox
!!!EED: Helmut Schaffrath
!!!EEV: 1.0
*-
